src/images/bg/train/statictop.svg

<svg fill="none" height="43" viewBox="0 0 42 43" width="42" xmlns="http://www.w3.org/2000/svg" xmlns:xlink="http://www.w3.org/1999/xlink"><linearGradient id="a"><stop offset="0" stop-color="#5d1e18"/><stop offset=".01" stop-color="#6a241e"/><stop offset=".02" stop-color="#9b3e36"/><stop offset=".03" stop-color="#bd4f46"/><stop offset=".04" stop-color="#80261f"/><stop offset=".98" stop-color="#b9433b"/><stop offset=".99" stop-color="#832d27"/><stop offset="1" stop-color="#571210"/></linearGradient><linearGradient id="b" gradientUnits="userSpaceOnUse" x1="20.69" x2="20.69" xlink:href="#a" y1="1.85" y2="39.52"/><linearGradient id="c" gradientUnits="userSpaceOnUse" x1="37.25" x2="31.76" y1="21.16" y2="21.16"><stop offset=".11" stop-color="#872a22" stop-opacity=".09"/><stop offset=".14" stop-color="#7a251e" stop-opacity=".37"/><stop offset=".17" stop-color="#70201b" stop-opacity=".6"/><stop offset=".21" stop-color="#681c18" stop-opacity=".78"/><stop offset=".25" stop-color="#621a16" stop-opacity=".91"/><stop offset=".32" stop-color="#5f1815" stop-opacity=".98"/><stop offset=".49" stop-color="#5e1815"/><stop offset=".64" stop-color="#601815" stop-opacity=".98"/><stop offset=".69" stop-color="#671a16" stop-opacity=".91"/><stop offset=".73" stop-color="#731c18" stop-opacity=".78"/><stop offset=".76" stop-color="#851f1b" stop-opacity=".6"/><stop offset=".78" stop-color="#9c231e" stop-opacity=".37"/><stop offset=".81" stop-color="#c02923" stop-opacity="0"/></linearGradient><linearGradient id="d" gradientUnits="userSpaceOnUse" x1="-1381.76" x2="-1354.91" xlink:href="#a" y1="158150" y2="159844"/><linearGradient id="e" gradientUnits="userSpaceOnUse" x1="10.5481" x2="8.31817" y1="15.0549" y2="12.4371"><stop offset="0" stop-color="#521512" stop-opacity="0"/><stop offset=".01" stop-color="#521512" stop-opacity=".18"/><stop offset=".04" stop-color="#521512" stop-opacity=".46"/><stop offset=".06" stop-color="#521512" stop-opacity=".68"/><stop offset=".1" stop-color="#521512" stop-opacity=".83"/><stop offset=".14" stop-color="#521512" stop-opacity=".92"/><stop offset=".24" stop-color="#521512" stop-opacity=".95"/><stop offset=".28" stop-color="#521512" stop-opacity=".98"/><stop offset=".5" stop-color="#521512"/><stop offset=".6" stop-color="#521512" stop-opacity=".96"/><stop offset=".68" stop-color="#531412" stop-opacity=".83"/><stop offset=".75" stop-color="#541411" stop-opacity=".62"/><stop offset=".83" stop-color="#551311" stop-opacity=".33"/><stop offset=".88" stop-color="#571210" stop-opacity=".01"/><stop offset="1" stop-color="#571210" stop-opacity="0"/></linearGradient><linearGradient id="f" gradientUnits="userSpaceOnUse" x1=".4205" x2="12.2945" y1="17.3276" y2="7.18019"><stop offset="0" stop-color="#5d1e18"/><stop offset=".01" stop-color="#6a241e"/><stop offset=".02" stop-color="#9b3e36"/><stop offset=".03" stop-color="#bd4f46"/><stop offset=".04" stop-color="#70211b"/><stop offset=".98" stop-color="#b8433b"/><stop offset=".99" stop-color="#832d27"/><stop offset="1" stop-color="#571210"/></linearGradient><linearGradient id="g" gradientUnits="userSpaceOnUse" x1="27.09" x2="9.96001" y1="24.39" y2="21.24"><stop offset="0" stop-color="#521512" stop-opacity=".95"/><stop offset=".01" stop-color="#531412" stop-opacity=".74"/><stop offset=".04" stop-color="#551311" stop-opacity=".47"/><stop offset=".07" stop-color="#561311" stop-opacity=".26"/><stop offset=".11" stop-color="#561210" stop-opacity=".12"/><stop offset=".16" stop-color="#571210" stop-opacity=".04"/><stop offset=".3" stop-color="#571210" stop-opacity=".01"/><stop offset="1" stop-color="#571210" stop-opacity="0"/></linearGradient><path clip-rule="evenodd" d="m30.7 1.71h10.59v38.91h-16.22l1.15-7.92-16.4-8.1-9.7300037-10.3 11.4400037-9.92 7.92 9.92 8.77 1.53z" fill="url(#b)" fill-rule="evenodd"/><path d="m37.76 1.71h-5.91v38.91h5.91z" fill="url(#c)"/><path d="m36.14 0h-2.67v42.34h2.67z" fill="url(#d)"/><path d="m.570007 14.87 2.480003 2.86 11.33999-9.63-2.48-2.96z" fill="url(#e)"/><path d="m0 16.02 1.81 2.09 12.58-10.77-1.71-2.1z" fill="url(#f)"/><path clip-rule="evenodd" d="m28.22 15.83-2.1 17.16-16.29999-8.39 9.62999-10.3z" fill="url(#g)" fill-rule="evenodd"/></svg>

<svg width="42" height="43" viewBox="0 0 42 43" fill="none" xmlns="http://www.w3.org/2000/svg">
<path fill-rule="evenodd" clip-rule="evenodd" d="M30.7 1.71H41.29V40.62H25.07L26.22 32.7L9.82 24.6L0.0899963 14.3L11.53 4.38L19.45 14.3L28.22 15.83L30.7 1.71Z" fill="url(#paint0_linear)"/>
<path d="M37.76 1.71H31.85V40.62H37.76V1.71Z" fill="url(#paint1_linear)"/>
<path d="M36.14 0H33.47V42.34H36.14V0Z" fill="url(#paint2_linear)"/>
<path d="M0.570007 14.87L3.05001 17.73L14.39 8.1L11.91 5.14L0.570007 14.87Z" fill="url(#paint3_linear)"/>
<path d="M0 16.02L1.81 18.11L14.39 7.34L12.68 5.24L0 16.02Z" fill="url(#paint4_linear)"/>
<path fill-rule="evenodd" clip-rule="evenodd" d="M28.22 15.83L26.12 32.99L9.82001 24.6L19.45 14.3L28.22 15.83Z" fill="url(#paint5_linear)"/>
<defs>
<linearGradient id="paint0_linear" x1="20.69" y1="1.85" x2="20.69" y2="39.52" gradientUnits="userSpaceOnUse">
<stop stop-color="#5D1E18"/>
<stop offset="0.01" stop-color="#6A241E"/>
<stop offset="0.02" stop-color="#9B3E36"/>
<stop offset="0.03" stop-color="#BD4F46"/>
<stop offset="0.04" stop-color="#80261F"/>
<stop offset="0.98" stop-color="#B9433B"/>
<stop offset="0.99" stop-color="#832D27"/>
<stop offset="1" stop-color="#571210"/>
</linearGradient>
<linearGradient id="paint1_linear" x1="37.25" y1="21.16" x2="31.76" y2="21.16" gradientUnits="userSpaceOnUse">
<stop offset="0.11" stop-color="#872A22" stop-opacity="0.09"/>
<stop offset="0.14" stop-color="#7A251E" stop-opacity="0.37"/>
<stop offset="0.17" stop-color="#70201B" stop-opacity="0.6"/>
<stop offset="0.21" stop-color="#681C18" stop-opacity="0.78"/>
<stop offset="0.25" stop-color="#621A16" stop-opacity="0.91"/>
<stop offset="0.32" stop-color="#5F1815" stop-opacity="0.98"/>
<stop offset="0.49" stop-color="#5E1815"/>
<stop offset="0.64" stop-color="#601815" stop-opacity="0.98"/>
<stop offset="0.69" stop-color="#671A16" stop-opacity="0.91"/>
<stop offset="0.73" stop-color="#731C18" stop-opacity="0.78"/>
<stop offset="0.76" stop-color="#851F1B" stop-opacity="0.6"/>
<stop offset="0.78" stop-color="#9C231E" stop-opacity="0.37"/>
<stop offset="0.81" stop-color="#C02923" stop-opacity="0"/>
</linearGradient>
<linearGradient id="paint2_linear" x1="-1381.76" y1="158150" x2="-1354.91" y2="159844" gradientUnits="userSpaceOnUse">
<stop stop-color="#5D1E18"/>
<stop offset="0.01" stop-color="#6A241E"/>
<stop offset="0.02" stop-color="#9B3E36"/>
<stop offset="0.03" stop-color="#BD4F46"/>
<stop offset="0.04" stop-color="#80261F"/>
<stop offset="0.98" stop-color="#B9433B"/>
<stop offset="0.99" stop-color="#832D27"/>
<stop offset="1" stop-color="#571210"/>
</linearGradient>
<linearGradient id="paint3_linear" x1="10.5481" y1="15.0549" x2="8.31817" y2="12.4371" gradientUnits="userSpaceOnUse">
<stop stop-color="#521512" stop-opacity="0"/>
<stop offset="0.01" stop-color="#521512" stop-opacity="0.18"/>
<stop offset="0.04" stop-color="#521512" stop-opacity="0.46"/>
<stop offset="0.06" stop-color="#521512" stop-opacity="0.68"/>
<stop offset="0.1" stop-color="#521512" stop-opacity="0.83"/>
<stop offset="0.14" stop-color="#521512" stop-opacity="0.92"/>
<stop offset="0.24" stop-color="#521512" stop-opacity="0.95"/>
<stop offset="0.28" stop-color="#521512" stop-opacity="0.98"/>
<stop offset="0.5" stop-color="#521512"/>
<stop offset="0.6" stop-color="#521512" stop-opacity="0.96"/>
<stop offset="0.68" stop-color="#531412" stop-opacity="0.83"/>
<stop offset="0.75" stop-color="#541411" stop-opacity="0.62"/>
<stop offset="0.83" stop-color="#551311" stop-opacity="0.33"/>
<stop offset="0.88" stop-color="#571210" stop-opacity="0.01"/>
<stop offset="1" stop-color="#571210" stop-opacity="0"/>
</linearGradient>
<linearGradient id="paint4_linear" x1="0.4205" y1="17.3276" x2="12.2945" y2="7.18019" gradientUnits="userSpaceOnUse">
<stop stop-color="#5D1E18"/>
<stop offset="0.01" stop-color="#6A241E"/>
<stop offset="0.02" stop-color="#9B3E36"/>
<stop offset="0.03" stop-color="#BD4F46"/>
<stop offset="0.04" stop-color="#70211B"/>
<stop offset="0.98" stop-color="#B8433B"/>
<stop offset="0.99" stop-color="#832D27"/>
<stop offset="1" stop-color="#571210"/>
</linearGradient>
<linearGradient id="paint5_linear" x1="27.09" y1="24.39" x2="9.96001" y2="21.24" gradientUnits="userSpaceOnUse">
<stop stop-color="#521512" stop-opacity="0.95"/>
<stop offset="0.01" stop-color="#531412" stop-opacity="0.74"/>
<stop offset="0.04" stop-color="#551311" stop-opacity="0.47"/>
<stop offset="0.07" stop-color="#561311" stop-opacity="0.26"/>
<stop offset="0.11" stop-color="#561210" stop-opacity="0.12"/>
<stop offset="0.16" stop-color="#571210" stop-opacity="0.04"/>
<stop offset="0.3" stop-color="#571210" stop-opacity="0.01"/>
<stop offset="1" stop-color="#571210" stop-opacity="0"/>
</linearGradient>
</defs>
</svg>
